src/icons/hicolor/scalable/actions/bbm-earbuds-wingtip-symbolic.svg

<svg height="16" viewBox="0 0 16 16" width="16" xmlns="http://www.w3.org/2000/svg"><path d="M 13.898438 3.8691406 C 12.899738 3.8691406 11.922528 4.0362406 10.923828 4.3691406 C 9.2385221 4.9517156 8.1761062 5.9927008 8.4257812 7.3867188 L 8.6757812 8.71875 C 8.8006182 9.530194 9.4676099 9.8828125 10.091797 9.8828125 C 11.028078 9.8828125 11.713325 9.0722394 11.546875 8.0527344 L 11.236328 6.2207031 C 11.194718 5.9710281 11.276392 5.8045245 11.546875 5.6796875 C 12.171062 5.3884005 12.775769 5.2224943 13.566406 5.0976562 C 14.044949 5.0352382 14.292969 4.6601836 14.292969 4.1816406 C 14.292969 3.9735776 14.189724 3.8691406 13.898438 3.8691406 z M 2.1425781 3.890625 C 1.8304841 3.890625 1.7480469 3.995062 1.7480469 4.203125 C 1.7480469 4.681668 1.9980185 5.0359156 2.4765625 5.1191406 C 3.2671995 5.2439776 3.8491476 5.3890789 4.4941406 5.7011719 C 4.7438156 5.8260099 4.8475743 5.9925125 4.7851562 6.2421875 L 4.4726562 8.0527344 C 4.3062062 9.0930464 5.0148909 9.8828125 5.9511719 9.8828125 C 6.5545529 9.8828125 7.2195904 9.5081123 7.3652344 8.7382812 L 7.6152344 7.40625 C 7.8649084 6.012232 6.8252516 4.9732 5.1191406 4.390625 C 4.1204406 4.036919 3.1412781 3.890625 2.1425781 3.890625 z M 11.818359 6.8457031 L 12.005859 7.9472656 C 12.193115 9.2580596 11.319366 10.339844 10.091797 10.339844 C 9.3843849 10.339844 8.7593596 9.9868719 8.4472656 9.4042969 C 8.5512966 10.943959 9.9460697 11.714844 11.527344 11.714844 C 11.943469 11.714844 12.255587 11.672311 12.546875 11.505859 C 13.150256 10.465547 13.565457 9.3636904 13.835938 8.1777344 C 13.523844 7.5327414 12.817059 7.1161841 11.818359 6.8457031 z M 4.2246094 6.8652344 C 3.2259094 7.1149094 2.5171711 7.5522726 2.2050781 8.1972656 C 2.4755591 9.3832216 2.8927128 10.466226 3.4960938 11.527344 C 3.7873808 11.672988 4.099501 11.734375 4.515625 11.734375 C 6.0969 11.734375 7.510525 10.965442 7.59375 9.4257812 C 7.281657 9.9875493 6.6585839 10.339844 5.9511719 10.339844 C 4.7027979 10.339844 3.8290474 9.258737 4.0371094 7.96875 L 4.2246094 6.8652344 z M 1.7265625 8.2597656 C 0.8735065 8.3429906 2.9605947e-16 9.0515659 0 10.154297 C 0 11.340253 0.7906065 12.130859 1.9765625 12.130859 C 2.4342995 12.130859 2.8714187 11.963325 3.1210938 11.796875 C 2.4761007 10.694144 2.0178495 9.5289466 1.7265625 8.2597656 z M 14.273438 8.2597656 C 13.98215 9.5081406 13.523899 10.694144 12.878906 11.796875 C 13.128581 11.984131 13.565701 12.130859 14.023438 12.130859 C 15.2302 12.130859 16 11.340253 16 10.154297 C 16 9.0723719 15.147299 8.3429906 14.273438 8.2597656 z" fill="#2e3436" stroke-width=".9375"/></svg>

<svg height="16" viewBox="0 0 16 16" width="16" xmlns="http://www.w3.org/2000/svg"><path class="st2" d="m5.950585 9.882965c.603381 0 1.269181-.374512 1.414825-1.144343l.249675-1.3316c.249674-1.394018-.790638-2.43433-2.496749-3.016905-.9987-.353706-1.976593-.49935-2.975293-.49935-.312094 0-.395319.104031-.395319.312094 0 .478543.249675.83225.728219.915475.790637.124837 1.373212.270481 2.018205.582574.249675.124838.353706.291288.291288.540963l-.312094 1.810143c-.16645 1.040312.540962 1.830949 1.477243 1.830949zm0-.707412c-.436931 0-.769831-.3329-.769831-.769831s.353706-.790637.769831-.790637c.436931 0 .769831.353706.769831.790637s-.3329.769831-.769831.769831zm0-.3329c.249675 0 .436931-.187256.436931-.436931s-.187256-.457738-.436931-.457738-.436931.208063-.436931.457738c-.020806.249675.187256.436931.436931.436931zm0 1.498049c-1.248374 0-2.122236-1.081924-1.914174-2.371911l.187256-1.102731c-.9987.249675-1.706112.686606-2.018205 1.331599.270481 1.185956.686606 2.267881 1.289987 3.328999.291287.145644.603381.208062 1.019505.208062 1.581275 0 2.996099-.769831 3.079324-2.309492-.312093.561768-.936281.915474-1.643693.915474zm4.140442-.457737c.936281 0 1.622887-.811444 1.456437-1.830949l-.312093-1.83095c-.041613-.249675.041612-.416125.312093-.540962.624187-.291287 1.227569-.457737 2.018206-.582575.478543-.062418.728218-.436931.728218-.915474 0-.208063-.104031-.312094-.395318-.312094-.9987 0-1.976593.16645-2.975293.49935-1.685306.582575-2.746424 1.622887-2.496749 3.016905l.249675 1.331599c.124837.811444.790637 1.16515 1.414824 1.16515zm0-.707412c-.436931 0-.790637-.3329-.790637-.769831s.353706-.790637.790637-.790637.769831.353706.769831.790637-.353706.769831-.769831.769831zm0-.3329c.249675 0 .436931-.187256.436931-.436931s-.187256-.457738-.436931-.457738-.457737.208063-.457737.457738.187256.436931.457737.436931zm0 1.498049c-.707412 0-1.331599-.353706-1.643693-.936281.104031 1.539662 1.49805 2.309493 3.079324 2.309493.416125 0 .728218-.041612 1.019506-.208062.603381-1.040312 1.019506-2.143043 1.289987-3.328999-.312094-.644993-1.019506-1.061118-2.018206-1.331599l.187257 1.10273c.187256 1.310794-.686606 2.392718-1.914175 2.392718zm-10.091027-.187256c0 1.185956.790637 1.976593 1.976593 1.976593.457737 0 .894668-.16645 1.144343-.3329-.644993-1.102731-1.102731-2.26788-1.394018-3.537061-.853056.083225-1.726918.790637-1.726918 1.893368zm16 0c0-1.081925-.853056-1.810143-1.726918-1.893368-.291287 1.248375-.749025 2.43433-1.394018 3.537061.249675.187256.686606.3329 1.144343.3329 1.206762 0 1.976593-.790637 1.976593-1.976593zm-10.049415-.977893c-.436931 0-.769831-.3329-.769831-.769831s.353706-.790637.769831-.790637c.436931 0 .769831.353706.769831.790637s-.3329.769831-.769831.769831zm0-.3329c.249675 0 .436931-.187256.436931-.436931s-.187256-.457738-.436931-.457738-.436931.208063-.436931.457738c-.020806.249675.187256.436931.436931.436931zm4.140442.3329c-.436931 0-.790637-.3329-.790637-.769831s.353706-.790637.790637-.790637.769831.353706.769831.790637-.353706.769831-.769831.769831zm0-.3329c.249675 0 .436931-.187256.436931-.436931s-.187256-.457738-.436931-.457738-.457737.208063-.457737.457738.187256.436931.457737.436931z" fill="#2e3436" stroke-width=".208062"/></svg>
